X:1
T:Sweet and Low
M:6/8
L:1/8
K:A
 C2 C F3| E2 E A3| AGF E2 ^D| F3- E3| C3 F3| E2 C F3| BGA F2 G| F3- E3|\
 EGFE-F E|E-A F E3| EGFE-F E|E-A ^D E3| AAA A2 G| F3- =F3| E2 E E3/2 F/2 E|\
 E2 E E3/2 F/2 E| A6-| A6|
